X:59
T:Prelude - Partita #3 E maj
C:J.S. Bach
N:
L:1/8
Q:1/4=100
M:3/4
K:E
ze'/d'/ e'b gb | e/f/e/d/ eB GB | E/B/F/B/ G/B/A/B/ G/B/F/B/ | E/e/d/c/ B/e/d/c/ B/A/G/F/ | 
E/B/F/B/ G/B/A/B/ G/B/F/B/ | E/e/d/c/ B/e/d/c/ B/A/G/F/ | E/F/G/A/ B/c/d/e/ f/g/a/f/ | 
g/b/e/f/ g/a/b/c'/ d'/e'/c'/d'/ | e'/b/a/b/ g/b/a/b/ g/b/f/b/ | e/e'/d'/c'/ b/e/c'/e/ b/e/a/e/ | 
g/b/f/b/ g/b/a/b/ g/b/f/b/ | e/e'/d'/c'/ b/e/c'/e/ b/e/a/e/ | g/e/e/e/ d/e/e/e/ f/e/d/e/ | 
e/e/g/e/ f/e/g/e/ a/e/f/e/ | g/e/e/e/ d/e/e/e/ f/e/d/e/ | e/e/g/e/ f/e/g/e/ a/e/f/e/ | 
g/e/g/e/ g/e/g/e/ g/e/g/e/ | g/e/g/d/ g/e/g/d/ g/e/g/d/ | g/e/g/=d/ g/e/g/d/ g/e/g/d/ | 
a/e/a/c/ a/e/a/c/ a/e/a/c/ | a/e/a/B/ a/e/a/B/ a/e/a/B/ | g/e/g/B/ g/e/g/B/ g/e/g/B/ | 
g/e/g/A/ g/e/g/A/ g/e/g/A/ | f/e/f/A/ f/e/f/A/ f/e/f/A/ | f/e/f/G/ f/e/f/G/ f/e/f/G/ | 
e/e/e/G/ e/e/e/G/ e/e/e/G/ | e/e/e/F/ e/e/e/F/ e/e/e/F/ | d/e/d/F/ d/e/d/F/ d/e/d/F/ | 
E/F/E/F/ G/B/E/F/ G/B/E/F/ | G/A/G/A/ B/e/G/A/ B/e/G/A/ | B/c/B/c/ =d/g/B/c/ d/g/B/c/ | 
=d/b/g/e/ d/B/G/E/ =D/C/D/B,/ | C/E/C/D/ =F/G/C/D/ F/G/C/D/ | =F/^F/=F/^F/ G/c/=F/^F/ G/c/=F/^F/ | 
G/A/G/A/ B/=f/G/A/ B/f/G/A/ | B/g/=f/c/ b/g/a/^f/ =f/g/c/B/ | A/c/A/F/ f/d/e/c/ =c/d/G/F/ | 
E/G/E/C/ E/G/c/G/ e/c/g/c/ | =c/d/c/G/ g/f/g/f/ g/d/e/^c/ | =c/d/c/G/ f/e/f/e/ f/d/e/^c/ | 
=c/d/c/G/ A/G/A/G/ A/D/E/C/ | =C/F/^C/F/ D/F/C/F/ =C/F/D/F/ | A,/F/d/F/ =c/F/d/F/ c/F/d/F/ | 
G,/E/c/E/ e/E/c/E/ e/E/c/E/ | G,/F/d/F/ =c/F/d/F/ c/F/d/F/ | G,/E/c/E/ e/E/c/E/ e/E/c/E/ | 
G,/F/c/F/ e/F/c/F/ e/F/c/F/ | G,/F/c/F/ e/F/c/F/ e/F/c/F/ | G,/G/c/G/ d/G/c/G/ d/G/c/G/ | 
G,/F/=c/F/ d/F/c/F/ d/F/c/F/ | C/c/B/A/ G/c/G/F/ E/G/E/D/ | C/c/G/F/ E/G/E/D/ C/E/C/B,/ | 
^A,/F/c/F/ e/F/c/F/ e/F/c/F/ | ^A,/F/e/F/ c/F/e/F/ c/F/e/F/ | B,/b/^a/g/ f/b/f/e/ d/f/d/c/ | 
B/b/f/e/ d/f/d/c/ B/d/B/A/ | G/=d/e/d/ g/d/b/d/ g/d/e/d/ | G/=d/e/d/ G/d/F/d/ G/d/E/d/ | 
c/e/a/g/ a/e/=d/e/ c/e/B/e/ | A/a/g/f/ e/A/f/A/ e/A/=d/A/ | c/e/B/e/ c/e/=d/e/ c/e/B/e/ | 
A/a/g/f/ e/A/f/A/ e/A/=d/A/ | c/A/A/A/ G/A/A/A/ B/A/G/A/ | A/A/c/A/ B/A/c/A/ =d/A/B/A/ | 
c/A/A/A/ G/A/A/A/ B/A/G/A/ | A/A/c/A/ B/A/c/A/ =d/A/B/A/ | c/A/c/A/ c/A/c/A/ c/A/c/A/ | 
c/A/c/G/ c/A/c/G/ c/A/c/G/ | c/A/c/=G/ c/A/c/G/ c/A/c/G/ | =d/A/d/F/ d/A/d/F/ d/A/d/F/ | 
=d/A/d/E/ d/A/d/E/ d/A/d/E/ | c/A/c/E/ c/A/c/E/ c/A/c/E/ | c/A/c/=D/ c/A/c/D/ c/A/c/D/ | 
B/A/B/=D/ B/A/B/D/ B/A/B/D/ | B/A/B/C/ B/A/B/C/ B/A/B/C/ | A/A/A/C/ A/A/A/C/ A/A/A/C/ | 
A/A/A/B,/ A/A/A/B,/ A/A/A/B,/ | G/A/G/B,/ G/A/G/B,/ G/A/G/B,/ | A,/B,/A,/B,/ C/E/A,/B,/ C/E/A,/B,/ | 
C/=D/C/D/ E/A/C/D/ E/A/C/D/ | E/F/E/F/ =G/c/E/F/ G/c/E/F/ | =G/e/c/=d/ e/c/^A/B/ c/A/F/E/ | 
=D/C/B,/C/ D/F/B,/C/ D/F/B,/C/ | =D/E/D/E/ F/B/D/E/ F/B/D/E/ | F/G/F/G/ A/d/F/G/ A/d/F/G/ | 
A/f/d/e/ f/d/=c/^c/ d/=c/G/F/ | =F/b/g/a/ b/g/=f/^f/ g/e/c/B/ | A/c'/a/b/ c'/a/f/g/ a/f/=d/c/ | 
B/=d'/b/c'/ d'/b/g/a/ b/g/e/g/ | c/d/c/d/ =f/g/c/d/ f/g/c/d/ | =f/^f/=f/^f/ g/b/=f/^f/ g/b/=f/^f/ | 
g/a/g/a/ b/=d'/g/a/ b/d'/g/a/ | b/=d'/b/g/ =f/b/g/f/ c/b/a/g/ | f/g/a/f/ B/a/g/f/ c/g/f/=f/ | 
=d/e/f/d/ G/f/e/d/ ^A/e/d/c/ | B/c/=d/B/ E/d/c/B/ F/c/B/A/ | G/A/B/A/ G/B/A/B/ G/B/F/B/ | 
=F/^F/G/A/ B/=F/=d/F/ c/F/B/F/ | F/A/F/C/ A,/C/F/C/ A/C/F/C/ | =F/G/F/C/ F/G/c/G/ =f/c/g/B/ | 
A/c/A/F/ A/c/f/c/ a/f/c'/f/ | e/g/e/c/ c'/=c'/^c'/=c'/ ^c'/g/a/f/ | =f/g/e/c/ b/a/b/a/ b/g/a/^f/ | 
e/g/e/c/ =d/c/d/c/ d/G/A/F/ | =F/G/c/b/ b/g/a/f/ =f/g/c/B/ | A/c/f/c'/ c'/a/b/g/ f/a/=d/c/ | 
B/=d/=G/F/ E/^G/C/B,/ A,/C/F/G/ | A/F/B/F/ c/F/=d/F/ C/F/G/=F/ | F/A/G/A/ A/A/G/A/ F/A/D/A/ | 
D/A/E/A/ F/A/G/A/ A/A/F/A/ | G/A/G/F/ E/e/d/e/ c/e/B/e/ | ^A/e/B/e/ c/e/d/e/ e/e/c/e/ | 
d/e/d/c/ B/c/d/e/ f/g/a/f/ | b/B/A/B/ G/B/F/B/ E/B/=D/B/ | C/E/F/G/ A/B/c/=d/ e/f/g/f/ | 
a/A/G/A/ F/A/F/A/ D/A/C/A/ | B,/D/E/F/ G/A/B/c/ d/e/f/d/ | g/E/=D/E/ C/E/B,/E/ A,/E/G,/E/ | 
A,/E/c/B/ c/e/a/g/ a/f/c/e/ | B,/F/d/c/ d/f/a/g/ a/f/d/f/ | B,/G/B/A/ B/e/g/f/ g/e/B/e/ | 
B,/^A/c/B/ c/e/^a/g/ a/e/c/e/ | d/b/^a/g/ f/b/f/e/ d/f/d/c/ | B/b/a/g/ f/a/f/e/ d/f/d/c/ | 
G/a/g/f/ e/g/e/d/ c/e/c/B/ | A/g/f/e/ d/f/d/c/ B/d/B/A/ | G/e/c/B/ A/c/A/G/ F/A/F/E/ | 
D/F/A/c/ B/d/f/a/ a/g/a/f/ | g/e/g/b/ e'/b/g/e/ B/f/e'/d'/ | e'/b/g/e/ =d/e/c/e/ d/e/B/e/ | 
c/e/a/e/ c/e/B/e/ c/e/A/e/ | B/e/g/e/ B/e/A/e/ B/e/G/e/ | A/e/f/e/ d/e/e/e/ f/e/g/e/ | 
[a3d3F3B,3]b [g2B2E2] | A,/a/g/a/4f/4 [f3B3]e | e/e'/d'/c'/ b/e'/a/e'/ g/e'/f/e'/ | 
e/e/d/c/ B/e/A/e/ G/e/F/e/ | E/G/B/d/ e/g/b/d'/ e'2 | 
 

